production/assets/icons/massagem.svg

<svg xmlns="http://www.w3.org/2000/svg" width="16" height="16" viewBox="0 0 16 16"><path fill="#010101" d="M3.9 3.8c0 1 .9 1.8 1.9 1.8s1.9-.8 1.9-1.8S6.8 2 5.8 2s-1.9.8-1.9 1.8zm8.4 8.7c1.1 0 1.9-.8 1.9-1.8s-.9-1.8-1.9-1.8c-1.1 0-1.9.8-1.9 1.8s.9 1.8 1.9 1.8zM3.7 3.1c.2-.7.8-1.2 1.5-1.4-.3-.3-.6-.5-1-.5-.6 0-1 .5-1 1 0 .4.2.7.5.9zm1.7 6c.6-.4.4-1 .4-1l1 .9s2 .8 2.3.9c.3.1.8.2 1.1-.3.2-.6-.6-.9-.6-.9L7.5 8S5.8 6.3 5.4 6c-.3-.3-1.6-.3-1.9-.3-.3 0-.5.4-.5.4l-1.8 4.2h3.3s.3-.8.9-1.2zm9.4 4.1l-3.5.1S9.2 11.1 9 10.9c-.2-.2-.5-.2-.5-.2h-8v3s7.7.1 9 .1c.7.9 1.4 1.1 1.4 1.1h3.9c.4 0 .7-.4.7-.9 0-.7-.7-.8-.7-.8z"/></svg>

<?xml version="1.0" encoding="utf-8"?>
<!-- Generator: Adobe Illustrator 16.0.0, SVG Export Plug-In . SVG Version: 6.00 Build 0)  -->
<!DOCTYPE svg PUBLIC "-//W3C//DTD SVG 1.1//EN" "http://www.w3.org/Graphics/SVG/1.1/DTD/svg11.dtd">
<svg version="1.1" id="Layer_1" xmlns="http://www.w3.org/2000/svg" xmlns:xlink="http://www.w3.org/1999/xlink" x="0px" y="0px"
	 width="16px" height="16px" viewBox="0 0 16 16" enable-background="new 0 0 16 16" xml:space="preserve">
<g>
	<g>
		<path fill="#010101" d="M3.9,3.8c0,1,0.9,1.8,1.9,1.8s1.9-0.8,1.9-1.8c0-1-0.9-1.8-1.9-1.8S3.9,2.8,3.9,3.8z M12.3,12.5
			c1.1,0,1.9-0.8,1.9-1.8c0-1-0.9-1.8-1.9-1.8c-1.1,0-1.9,0.8-1.9,1.8C10.4,11.7,11.3,12.5,12.3,12.5z M3.7,3.1
			c0.2-0.7,0.8-1.2,1.5-1.4C4.9,1.4,4.6,1.2,4.2,1.2c-0.6,0-1,0.5-1,1C3.2,2.6,3.4,2.9,3.7,3.1z M5.4,9.1c0.6-0.4,0.4-1,0.4-1l1,0.9
			c0,0,2,0.8,2.3,0.9c0.3,0.1,0.8,0.2,1.1-0.3C10.4,9,9.6,8.7,9.6,8.7L7.5,8c0,0-1.7-1.7-2.1-2C5.1,5.7,3.8,5.7,3.5,5.7
			C3.2,5.7,3,6.1,3,6.1l-1.8,4.2h3.3C4.5,10.3,4.8,9.5,5.4,9.1z M14.8,13.2l-3.5,0.1c0,0-2.1-2.2-2.3-2.4c-0.2-0.2-0.5-0.2-0.5-0.2
			h-8v3c0,0,7.7,0.1,9,0.1c0.7,0.9,1.4,1.1,1.4,1.1s3.5,0,3.9,0c0.4,0,0.7-0.4,0.7-0.9C15.5,13.3,14.8,13.2,14.8,13.2z"/>
	</g>
</g>
</svg>
